X:14
T:Cotillon XIV Le Charlatan
F:http://www.vwml.org/record/Longmans/9236/p14
Z:Transcribed by David Jacobs February 2016
S:Longman's XXIV New Cotillons
L:1/8
M:2/4
K:Dm
V:1     clef=treble
V:2     clef=bass
V:1
fda2 | fda2 | fage | dAFD | afc'2 | afc'2 | afce | fcAF:|
cF_e2 | dBAB | dGf2 | ec=Bc | eAa2 | eAa2 | =BdcB | A3^c | dAf2|
e^c=BA | eAg2|{g}f3g | add'2 | add'2 | egfe | dAFD:|
V:2
D2^CA, | D2^CA, | D2A,2 | D,4 | F,2E,C, |F,2E,C, | F,2C,2 |F4:|
A,2F,2 | B,2B,,2 | =B,2G,2 | C2C,2 | A,,4 | C,4 | D,2E,2 |A,3G, | F,2D,2|
A,4 | ^C,4 | D,3E, | F,4 | D,4 | G,2A,2 | D,4:|
W:All round:
W:Four Couples turn each other's Partners:
W:Chassee all Eight, turn Partners into their Places, 
W:Then Chassee again by all Eight:
W:Then turn their Partners again into their Places.

